X: 10095
T: Die Alte Kath
R: waltz
M: 3/4
K: Gmajor
|:D3 C B,C|D4 G2|[M:2/4] F2 A2|G2 B2|[M:3/4] D3 C B,C|D4 G2|[M:2/4] F2 A2|G2 z2:|
|:[M:3/4] E2 cB c2|D2 BA B2|[M:2/4] D2 A2|G2 B2|[M:3/4] E2 cB c2|D2 BA B2|[M:2/4] D2 A2|G2 z2:|

